!!!!SEGMENT: pl-wtm--mus-iii-40-225--001-002_fitelberg-grzegorz--preludyum-i-piesn-op-19-piesn-labedz-obloczna-gora.krn
!!!cenid: 19xx:89
!!!COM: Fitelberg, Grzegorz
!!!COM-rismID: pe41023683
!!!CDT: 1879-1953
!!!CNT: Polish
!!!OPR: Preludyum i pieśń op. 19
!!!OTL: Pieśń. Łabędź/Obłoczną górą
!!!OMV: 002
!!!PDT: 1906
!!!AGN: Secular; Song
!!!YEC: Copyright 2022 Narodowy Instytut Fryderyka Chopina (https://polishscores.org)
!!!YEM: License CC-BY-4.0 (https://creativecommons.org/licenses/by/4.0)
!!!SMS-siglum: PL-Wtm
!!!SMS-shelfmark: Mus.III.40.225
!!!SMS-variant:
!!!SMS-altvar:
!!!SMS-shelfwork: 001-002 M
!!!NIFC-rismSourceID: 1001123411
!!!NIFC-rismChildID: 1001123415
!!!NIFC-islandoraID: pl-wtm:8316
!!!URL-pdf-islandora: https://repozytorium.nifc.pl/islandora/object/pl-wtm%3A8316/datastream/PDF/view
!!!URL-scan: https://polish.musicsources.pl/pl/lokalizacje/galeria/druki-muzyczne/11976/3 @EN{Scan on Polish Music Sources Website} @PL{Skany w portalu Dziedzictwo Muzyki Polskiej w otwartym dostępie}
!!!IIIF:
!!!ONB-nifc: UWAGA: Części: 1. Preludyum, 2. Pieśń
!!!OMD: Poco moderato, ma tranquillamente.
!!!AIN: 1 piano 1 vox
!!!key: C
**kern	**kern	**dynam	**kern	**text	**text	**dynam
*part2	*part2	*part2	*part1	*part1	*part1	*part1
*staff3	*staff2	*	*staff1	*staff1	*staff1	*
*ICklav	*ICklav	*	*ICvox	*	*	*
*Ipiano	*Ipiano	*	*Ivox	*	*	*
*I"Pianoforte.	*I"Pianoforte.	*	*I"Singstimme.\nSpiew.	*	*	*
*clefF4	*clefG2	*	*clefG2	*	*	*
*k[]	*k[]	*	*k[]	*	*	*
*C:	*C:	*	*C:	*	*	*
*M4/4	*M4/4	*	*M4/4	*	*	*
=1	=1	=1	=1	=1	=1	=1
2c#X~\ 2e	2g~\ 2b 2ee	p	4r	.	.	.
.	.	.	8r	.	.	.
!	!	!	!	!	!	!LO:DY:a
.	.	.	8e/	Der	Ob-	p
2cn~\ 2e	2g~\ 2cc 2ee	.	4e/	Him-	-łocz-	.
.	.	.	4f#X/	-mel	-ną	.
=2	=2	=2	=2	=2	=2	=2
2c#X~\ 2e	2g~\ 2b 2ee	.	4g/	glüht	gó-	.
.	.	.	4a/	so	-rą	.
2B#X~\ 2d#X	2f#X~/ 2a#X 2dd	.	4a#X/	blu-	ciąg-	.
.	.	.	4b#X\	-tig	-nie	.
=3	=3	=3	=3	=3	=3	=3
*^	*^	*	*	*	*	*
(4.d#X/	2Bn\	2f#X~/ 2b 2dd#X	2ryy	.	4dd#X\	bang,	ptak	.
.	.	.	.	.	4dd#\	ein	W bez-	.
8B/)	.	.	.	.	.	.	.	.
!	!	!LO:TX:b:i:t=espressivo	!	!	!	!	!	!
(4B/	[2B\	[2ddn/	2e#X\ 2an	.	[2ddn\	Schwan-	-gwiez-	.
4c#X/	.	.	.	.	.	.	.	.
!!LO:LB:g=original
=4	=4	=4	=4	=4	=4	=4	=4	=4
4d/	1B_	1dd_	(2d\ [>2e	.	4dd\]	.	.	.
4e/	.	.	.	.	4a/	-schwebt	-dną	.
4e#X/	.	.	[<2c#X\) 2e_>	.	4.a/	in	ci-	.
4f##X/	.	.	.	.	.	.	.	.
.	.	.	.	.	8a/	dem	-szę	.
=5	=5	=5	=5	=5	=5	=5	=5	=5
*	*	*	*^	*	*	*	*	*
4g#X/	1B_	(4dd/]	1c#]	(<2e/]	.	4g#X/	Wol-	przysz-	.
4gn/	.	2.cc#X/)	.	.	.	4gn/	-ken-	-łych	.
[2f#X/	.	.	.	4f#X/	.	2f#X/	-meer;	burz,	.
.	.	.	.	4e#X/)	.	.	.	.	.
*	*	*v	*v	*v	*	*	*	*	*
=6	=6	=6	=6	=6	=6	=6	=6
2.f#/])	4B\]	(>(>(2cn/ 2en 2ccn	.	2r	.	.	.
.	[2.B-X\	.	.	.	.	.	.
.	.	[2c-X/))) [>2e-X [2cc-X	.	4r	.	.	.
[4f#X/	.	.	.	4f#X/	am	Po-	.
=7	=7	=7	=7	=7	=7	=7	=7
4f#/]	4B-\]	2c-/] 2e-] 2cc-]	.	4f#X/	Gift	-nu-	.
(4fn/	(4A\	.	.	4fn/	des	-rą	.
2f-X/)	2A-X\) 2c	2e-X/ 2cc-X 2ee-X	sfz > ]]	4f-X/	Zwei-	gro-	.
.	.	.	.	4f-/	-fels	-zą	.
=8	=8	=8	=8	=8	=8	=8	=8
*	*	*^	*	*	*	*	*
1B-X 1d	(2G\	(2een/	1b-X 1dd	p	4r	.	.	.
.	.	.	.	.	2en/	ist	krwa-	.
.	2F\)	2ff/)	.	.	.	.	.	.
.	.	.	.	.	4f/	er	-wych	.
*v	*v	*	*	*	*	*	*	*
*	*v	*v	*	*	*	*	*
!!LO:LB:g=original
=9||	=9||	=9||	=9||	=9||	=9||	=9||
*M2/4	*M2/4	*	*M2/4	*	*	*
*^	*^	*	*	*	*	*
(4A/	2D-X\ 2A 2Bn 2f	((4f/ 4ff	2a\ 2bn 2ff	<	4f/	krank...	zórz,	.
4G/)	.	4g/)) 4gg	.	[[	4r	.	.	.
*v	*v	*	*	*	*	*	*	*
*	*v	*v	*	*	*	*	*
=10	=10	=10	=10	=10	=10	=10
*M4/4	*M4/4	*	*M4/4	*	*	*
1C#X 1F#X 1A#X 1e	1g#X 1a#X 1ee 1gg#X	p	4r	.	.	.
.	.	.	4f#X/	Ge-	W da-	.
.	.	.	4f#/	-wit-	-le-	.
.	.	.	4f#/	-ter	-ki,	.
=11	=11	=11	=11	=11	=11	=11
*^	*^	*	*	*	*	*
(2Fn/	1D-X 1An 1B 1f	((>2f/ 2ff	1an 1b 1ff	<	4r	.	.	.
.	.	.	.	.	2a/	na-	chmur-	.
2G/)	.	2g/)) 2gg	.	.	.	.	.	.
.	.	.	.	[[	4g/	-hen	-ny	.
*v	*v	*	*	*	*	*	*	*
*	*v	*v	*	*	*	*	*
=12	=12	=12	=12	=12	=12	=12
2Cn\ 2F#X 2A#X 2e	2g#X\ 2a#X 2ee 2gg#X	pp	4f#X/	un-	zwąt-	.
!	!	!	!LO:TX:a:i:t=rit.	!	!	!
.	.	.	4f#/	-heil-	-pień	.
*clefG2	*	*	*	*	*	*
!	!LO:TX:b:i:t=rit.	!	!	!	!	!
2c/ 2f#X 2a#X 2ee	2gg#X\ 2aa#X 2eee 2ggg#X	.	4f#/	-schwer.	szlak.	.
.	.	.	4r	.	.	.
*clefF4	*	*	*	*	*	*
=13	=13	=13	=13	=13	=13	=13
2C\ 2F#X 2A#X 2e	2g#X\ 2a#X 2ee 2gg#X	.	1r	.	.	.
4r	2r	.	.	.	.	.
N(4FFFn/	.	.	.	.	.	.
!!LO:PB:g=original
=14	=14	=14	=14	=14	=14	=14
*M3/4	*M3/4	*	*M3/4	*	*	*
*^	*^	*	*	*	*	*
!	!	!LO:TX:b:i:t=dolce espressivo	!	!LO:DY:rj	!LO:TX:a:B:t=Andante molto espressivo.	!	!	!
(4c#X/	(4F\N)	(4ff/	(4aa\	p	4r	.	.	.
4d/	[2f\)	4b/	2a\	.	8r	.	.	.
!	!	!	!	!	!	!	!	!LO:DY:a:rj
.	.	.	.	.	8ff\	Ein	Ła-	p
4d-X/	.	4cc/	.	.	8a/	O-	-bę-	.
.	.	.	.	.	8a/	-men	-dziu	.
=15	=15	=15	=15	=15	=15	=15	=15	=15
4cn/	(2f\]	4cc#X/	4a\	.	4.a/	gieb	mój,	.
2Bn/)	.	2dd/)	4dd\	.	.	.	.	.
.	.	.	.	.	8a/	durch	z tęs-	.
.	4f-X\)	.	4ff#X\)	.	8a-X/	dei-	-kno-	.
.	.	.	.	.	8a-/	-nen	-ty	.
=16	=16	=16	=16	=16	=16	=16	=16	=16
(4Bn/	(4E-X\	(4ee-X/	(4gg\	.	8g/	Flug	mórz	.
.	.	.	.	.	8g/	vom	po-	.
4c/	[2e-X\)	4a/	2g\	.	[2gg\	Sehn-	-lo-	.
4c-X/	.	4b-X/	.	.	.	.	.	.
=17	=17	=17	=17	=17	=17	=17	=17	=17
4B-X/	(2e-\]	4bn/	4g\	.	2gg\]	.	.	.
2An/)	.	2cc/)	4cc\	.	.	.	.	.
.	4e--\)	.	4een\)	.	4gg-X\	-suchts-	-tem	.
!!LO:LB:g=original
=18	=18	=18	=18	=18	=18	=18	=18	=18
(4An/	(4D-X\	(4dd-X/	(4ff\	.	4ff\	-meer	twym	.
4B-X/)	4d-X\)	4g/)	4f\)	.	8r	.	.	.
.	.	.	.	.	8dd-X\	o	daj	.
(4A/	(4D-\	(4dd-/	(4ff\	.	8f/	stol-	bo-	.
.	.	.	.	.	8f/	-zer	-ży	.
=19	=19	=19	=19	=19	=19	=19	=19	=19
4B-X/)	4d-X\)	4g/)	4f\)	.	2f/	Schwan;	znak,	.
(4B#X/	(4Fn\	(4een/	(4gg#X\	.	.	.	.	.
4c#X/)	4en\)	4a#X/)	4g#X\)	.	4r	.	.	.
=20	=20	=20	=20	=20	=20	=20	=20	=20
(4d#X/	(4A-X\	(4ggn/	(4bb\	.	[4bn\	du,	Ty,	.
4e/	[2g\)	4cc#X/	[2b\)	.	8b\]	.	.	.
.	.	.	.	.	8r	.	.	.
4e-X/	.	4dd/	.	.	8b\	hei-	bia-	.
.	.	.	.	.	8b\	-sser	-łych	.
=21	=21	=21	=21	=21	=21	=21	=21	=21
4dn/	(2g\]	4dd#X/	(2b\]	.	8b\	Träu-	ma-	.
.	.	.	.	.	8b\	-me	-rzeń	.
4d-X/	.	(2ee/)	.	.	8b\	ir-	błę-	.
.	.	.	.	.	8b\	-rer	-dny	.
4c/	4g-\	.	4b-X\	.	[4ee\	Trug,	ptak,	.
*v	*v	*	*	*	*	*	*	*
*	*v	*v	*	*	*	*	*
!!LO:LB:g=original
=22	=22	=22	=22	=22	=22	=22
*M4/4	*M4/4	*	*M4/4	*	*	*
*^	*^	*	*	*	*	*
4c-X/	4f\	1ee)	4a\	.	2ee\]	.	.	.
2.B-X/)	4e\	.	2g#X\	.	.	.	.	.
.	4d#X\	.	.	.	4r	.	.	.
!	!	!	!	!	!	!	!	!LO:HP:a
.	4c#X\)	.	4gn\)	.	4ee\	mein	O	<[
=23	=23	=23	=23	=23	=23	=23	=23	=23
!	!	!	!	!	!	!	!	!LO:HP:a
(4B-X/	2cn\	(4ee-X^/	(4e#X\	>	4ee-X^\	Schick-	do-	>
4A/)	.	4dd/)	4f#X\)	]	4dd\	-sal,	-lę,	]
!	!	!	!	!	!	!	!	!LO:HP:a
(4B-/	2c\	(4dd#X^/	(4e#\	>	4ee-^\	Schick-	do-	>
4A/)	.	4een/)	4f#\)	]	[4dd\	-sal	-lę	.
=24	=24	=24	=24	=24	=24	=24	=24	=24
!	!	!	!	!LO:HP:a	!	!	!	!
((4Bn/ 4d	1D	((2.e#X/ 2.ee#X	4b\ 4dd	<	4dd\]	.	.	]
((<(4B-X/)) 4d-X 4fn	.	.	((<(4b-X\ 4dd-X 4ffn	.	4r	.	.	.
!	!	!	!	!	!	!	!	!LO:HP:a
((4A/))) [4c 4en	.	.	((>4a\))) [4cc 4een	.	4dd\	sag'	mo-	<
4A-X/)) 4c] 4e-X	.	4f#X/)) 4ff#X	4a-X\)) 4cc] 4ee-X	[[	4dd\	mir	-ją	[
*v	*v	*	*	*	*	*	*	*
*	*v	*v	*	*	*	*	*
=25	=25	=25	=25	=25	=25	=25
!	!	!	!	!	!	!LO:DY:a
2CC/ 2GG 2En	2g\ 2an 2cc 2gg	pp	2gg\	an!	wróż!	pp
*clefG2	*	*	*	*	*	*
!	!LO:TX:a:i:t=pochissimo agitato	!	!	!	!	!
!LO:TUP:b	!LO:TUP:a	!	!	!	!	!
(24c/LL	(24aa\LL	.	2r	.	.	.
24d#X/	24ee\	.	.	.	.	.
24e/	24gg\	.	.	.	.	.
24f#X/	24dd\	.	.	.	.	.
24g/	24ee\	.	.	.	.	.
24g#X/JJ	24cc\JJ	.	.	.	.	.
!LO:TUP:b	!LO:TUP:a	!	!	!	!	!
24c/LL	24aa\LL	.	.	.	.	.
24d#/	24ee\	.	.	.	.	.
24e/	24gg\	.	.	.	.	.
24f#/	24dd\	.	.	.	.	.
24gn/	24ee\	.	.	.	.	.
24g#X/JJ	24cc\JJ	.	.	.	.	.
!!LO:LB:g=original
=26	=26	=26	=26	=26	=26	=26
*M3/4	*M3/4	*	*M3/4	*	*	*
*Xtuplet	*Xtuplet	*	*	*	*	*
24c/LL	24aa\LL	.	2.r	.	.	.
24d#X/	24ee\	.	.	.	.	.
24e/	24gg\	.	.	.	.	.
24f#X/	24dd\	.	.	.	.	.
24g/	24ee\	.	.	.	.	.
24g#X/JJ	24cc\JJ	.	.	.	.	.
24c/LL	24aa\LL	.	.	.	.	.
24d#/	24ee\	.	.	.	.	.
24e/	24gg\	.	.	.	.	.
24f#/	24dd\	.	.	.	.	.
24gn/	24ee\	.	.	.	.	.
24g#X/JJ	24cc\JJ	.	.	.	.	.
24c/LL	24aa\LL	.	.	.	.	.
24d#/	24ee\	.	.	.	.	.
24e/	24gg\	.	.	.	.	.
24f#/	24dd\	.	.	.	.	.
24gn/	24ee\	.	.	.	.	.
24g#X/JJ)	24cc\JJ)	.	.	.	.	.
=27	=27	=27	=27	=27	=27	=27
(24c/LL	(24bb-X\LL	p	4r	.	.	.
24dn/	24ff\	.	.	.	.	.
24e-X/	24gg-X\	.	.	.	.	.
24f/	24dd\	.	.	.	.	.
24g-X/	24ee-X\	.	.	.	.	.
24b-X/JJ	24cc\JJ	.	.	.	.	.
24c/LL	24bbn\LL	.	8r	.	.	.
24d/	24ff\	.	.	.	.	.
24e-/	24gg-\	.	.	.	.	.
!	!	!	!	!	!	!LO:DY:a:rj
24f/	24dd\	.	8gg-X\	O	La-	p
24g-/	24ee-\	.	.	.	.	.
24b-/JJ	24cc\JJ	.	.	.	.	.
24c/LL	24bb\LL	.	8b-X\	stol-	-bę-	.
24d/	24ff\	.	.	.	.	.
24e-/	24gg-\	.	.	.	.	.
24f/	24dd\	.	8b-\	-zer	-dziu	.
24g-/	24ee-\	.	.	.	.	.
24b-/JJ)	24cc\JJ)	.	.	.	.	.
!!LO:PB:g=original
=28	=28	=28	=28	=28	=28	=28
(24c-X/LL	(24ccc-X\LL	.	2cc-X\	Schwan	mój	.
24dn/	24ff\	.	.	.	.	.
24e-X/	24gg-X\	.	.	.	.	.
24en/	24dd\	.	.	.	.	.
24f/	24ee-X\	.	.	.	.	.
24g-X/JJ	24cc-X\JJ	.	.	.	.	.
24c-/LL	24ccc-\LL	.	.	.	.	.
24d/	24ff\	.	.	.	.	.
24e-X/	24gg-\	.	.	.	.	.
24en/	24dd\	.	.	.	.	.
24f/	24ee-\	.	.	.	.	.
24g-/JJ	24cc-\JJ	.	.	.	.	.
24c-/LL	24ccc-\LL	.	4r	.	.	.
24d/	24ff\	.	.	.	.	.
24e-X/	24gg-\	.	.	.	.	.
24en/	24dd\	.	.	.	.	.
24f/	24ee-\	.	.	.	.	.
24g-/JJ)	24cc-\JJ)	.	.	.	.	.
=29	=29	=29	=29	=29	=29	=29
(24cn/LL	(24bb-X\LL	.	4r	.	.	.
24d/	24ff\	.	.	.	.	.
24e-X/	24gg-X\	.	.	.	.	.
24f/	24dd\	.	.	.	.	.
24g-X/	24ee-X\	.	.	.	.	.
24b-X/JJ	24ccn\JJ	.	.	.	.	.
24c/LL	24bb-\LL	.	8r	.	.	.
24d/	24ff\	.	.	.	.	.
24e-/	24gg-\	.	.	.	.	.
24f/	24dd\	.	8gg-X\	vom	z ma-	.
24g-/	24ee-\	.	.	.	.	.
24b-/JJ	24cc\JJ	.	.	.	.	.
24c/LL	24bb-\LL	.	8b-X\	Sehn-	-rze-	.
24d/	24ff\	.	.	.	.	.
24e-/	24gg-\	.	.	.	.	.
24f/	24dd\	.	8b-\	-suchts-	-nia	.
24g-/	24ee-\	.	.	.	.	.
24b-/JJ)	24cc\JJ)	.	.	.	.	.
!!LO:LB:g=original
=30	=30	=30	=30	=30	=30	=30
(24c#X/LL	(24bbn\LL	.	2bn\	-born,	wód,	.
24d#X/	24ff#X\	.	.	.	.	.
24en/	24ggn\	.	.	.	.	.
24f#X/	24dd#X\	.	.	.	.	.
24g/	24ee\	.	.	.	.	.
24bn/JJ	24cc#X\JJ	.	.	.	.	.
24c#/LL	24bb\LL	.	.	.	.	.
24d#/	24ff#\	.	.	.	.	.
24e/	24gg\	.	.	.	.	.
24f#/	24dd#\	.	.	.	.	.
24g/	24ee\	.	.	.	.	.
24b/JJ	24cc#\JJ	.	.	.	.	.
24c#/LL	24bb\LL	.	4r	.	.	.
24d#/	24ff#\	.	.	.	.	.
24e/	24gg\	.	.	.	.	.
24f#/	24dd#\	.	.	.	.	.
24g/	24ee\	.	.	.	.	.
24b/JJ)	24cc#\JJ)	.	.	.	.	.
=31	=31	=31	=31	=31	=31	=31
(24dn/LL	(24ccc\LL	.	8r	.	.	.
24e/	24gg\	.	.	.	.	.
24fn/	24aa-X\	.	.	.	.	.
24g/	24ee\	.	8cc\	des	We	.
24a-X/	24ffn\	.	.	.	.	.
24cc/JJ	24ddn\JJ	.	.	.	.	.
24d/LL	24ccc\LL	.	4cc\	Da-	snach	.
24e/	24gg\	.	.	.	.	.
24f/	24aa-\	.	.	.	.	.
24g/	24ee\	.	.	.	.	.
24a-/	24ff\	.	.	.	.	.
24cc/JJ	24dd\JJ	.	.	.	.	.
24d/LL	24ccc\LL	.	4cc\	-seins	się	.
24e/	24gg\	.	.	.	.	.
24f/	24aa-\	.	.	.	.	.
24g/	24ee\	.	.	.	.	.
24a-/	24ff\	.	.	.	.	.
24cc/JJ)	24dd\JJ)	.	.	.	.	.
!!LO:LB:g=original
=32	=32	=32	=32	=32	=32	=32
(24d-X/LL	(24ddd-X\LL	.	2dd-X\	Wun-	iś-	.
24en/	24gg\	.	.	.	.	.
24f/	24aa-X\	.	.	.	.	.
24g-X/	24ee\	.	.	.	.	.
24gn/	24ff\	.	.	.	.	.
24a-X/JJ	24dd-X\JJ	.	.	.	.	.
24d-/LL	24ddd-\LL	.	.	.	.	.
24e/	24gg\	.	.	.	.	.
24f/	24aa-\	.	.	.	.	.
24g-X/	24ee\	.	.	.	.	.
24gn/	24ff\	.	.	.	.	.
24a-/JJ	24dd-\JJ	.	.	.	.	.
24d-/LL	24ddd-\LL	.	4a-X/	-der	-ci	.
24e/	24gg\	.	.	.	.	.
24f/	24aa-\	.	.	.	.	.
24g-X/	24ee\	.	.	.	.	.
24gn/	24ff\	.	.	.	.	.
24a-/JJ)	24dd-\JJ)	.	.	.	.	.
=33	=33	=33	=33	=33	=33	=33
(24dn/LL	(24ccc\LL	.	4r	.	.	.
24e/	24gg\	.	.	.	.	.
24f/	24aa-X\	.	.	.	.	.
24g/	24ee\	.	.	.	.	.
24a-X/	24ff\	.	.	.	.	.
24cc/JJ	24dd-X\JJ	.	.	.	.	.
!	!	!	!	!	!	!LO:HP:a
24d/LL	24ccc\LL	.	4cc\	lebt	by-	<
24e/	24gg\	.	.	.	.	.
24f/	24aa-\	.	.	.	.	.
24g/	24ee\	.	.	.	.	.
24a-/	24ff\	.	.	.	.	.
24cc/JJ	24dd-\JJ	.	.	.	.	.
24d/LL	24ccc\LL	.	4ff\	im	-tu	.
24e/	24gg\	.	.	.	.	.
24f/	24aa-\	.	.	.	.	.
24g/	24ee\	.	.	.	.	[
24a-/	24ff\	.	.	.	.	.
24cc/JJ)	24dd-\JJ)	.	.	.	.	.
!!LO:LB:g=original
=34	=34	=34	=34	=34	=34	=34
!	!	!	!	!	!	!LO:HP:a
(24e-X/LL	(24ddd-X\LL	.	2ff-X\	Traum,	cud	>
24f#X/	24aan\	.	.	.	.	.
24g/	24bb-X\	.	.	.	.	.
24an/	24ff#X\	.	.	.	.	.
24b-X/	24gg\	.	.	.	.	.
24dd-X/JJ	24een\JJ	.	.	.	.	.
24e-/LL	24ddd-\LL	.	.	.	.	.
24f#/	24aa\	.	.	.	.	.
24g/	24bb-\	.	.	.	.	]
24a/	24ff#\	.	.	.	.	.
24b-/	24gg\	.	.	.	.	.
24dd-/JJ	24ee\JJ	.	.	.	.	.
24e-/LL	24ddd-\LL	.	8r	.	.	.
24f#/	24aa\	.	.	.	.	.
24g/	24bb-\	.	.	.	.	.
24a/	24ff#\	.	8ee-X\	und	I	.
24b-/	24gg\	.	.	.	.	.
24dd-/JJ	24ee-X\JJ	.	.	.	.	.
=35	=35	=35	=35	=35	=35	=35
*^	*^	*	*	*	*	*
24en/LL	4ryy	24dddn\LL	4ryy	.	8dd\	Schön-	snu-	.
24f#X/	.	24aa\	.	.	.	.	.	.
24g/	.	24bb-X\	.	.	.	.	.	.
24a/	.	24ff#X\	.	.	8dd\	-heit	-je	.
24b-X/	.	24gg\	.	.	.	.	.	.
24ddn/JJ)	.	24een\JJ)	.	.	.	.	.	.
*	*	*	*8va	*	*	*	*	*
&(<(24g/LL	4g\	(4eee/	(24eee\LL	.	8dd\	wächst	pię-	.
24a/	.	.	24ccc#X\	.	.	.	.	.
24b-X/	.	.	24ddd\	.	.	.	.	.
24cc/	.	.	24aa\	.	8dd\	uns	-kno	.
24cc#X/	.	.	24bb-X\	.	.	.	.	.
24dd/JJ)	.	.	24ee\JJ)	.	.	.	.	.
(24g-X/LL	4g-\	4fff#/	(24fff#\LL	.	8dd\	aus	ro-	.
24a/	.	.	24ccc#\	.	.	.	.	.
24b-/	.	.	24ddd\	.	.	.	.	.
24ccn/	.	.	24aa\	.	8dd\	dem	-jem	.
24cc#X/	.	.	24bb-\	.	.	.	.	.
24dd/JJ)	.	.	24ff\JJ)	.	.	.	.	.
!!LO:PB:g=original
=36	=36	=36	=36	=36	=36	=36	=36	=36
*	*	*	*	*	*	*	*	*^
!	!	!LO:TX:b:i:t=molto rit.	!	!	!LO:TX:a:i:t=molto rit.	!	!	!	!
(24f/LL	4f\	4fff#X/	(24fff#\LL	.	(<2dd\	Seh-	mar!	.	.
24a/	.	.	24ccc#X\	.	.	.	.	.	.
24b-X/	.	.	24ddd\	.	.	.	.	.	.
24cc/	.	.	24aa\	.	.	.	.	.	.
24cc#X/	.	.	24bb-X\	.	.	.	.	.	.
24dd/JJ)	.	.	24ff#X\JJ)	.	.	.	.	.	.
(>24e/LL	4e\&)	4ggg/	(24ggg\LL	.	.	.	.	.	.
24a/	.	.	24ccc#\	.	.	.	.	.	.
24b-/	.	.	24ddd\	.	.	.	.	.	.
24ccn/	.	.	24aa\	.	.	.	.	.	.
24cc#X/	.	.	24bb-\	.	.	.	.	.	.
24dd/JJ)	.	.	24gg\JJ)	.	.	.	.	.	.
!	!	!	!	!	!	!	!	!LO:HP:a	!LO:HP:a:t=dim.
24r	4ryy	4ggg#X/)	(24ggg#\LL	>	4dd-X;\)	-nen.	.	>	>
(12c/L	.	.	24bb#X\	.	.	.	.	.	.
.	.	.	24ccc#X\	.	.	.	.	.	.
12b-X/	.	.	24ff##X\	.	.	.	.	.	.
.	.	.	24gg#X\JJ)	.	.	.	.	.	.
*	*	*	*X8va	*	*	*	*	*	*
24ee;</Jk)	.	.	24r;>	]	.	.	.	]]	.
*	*	*	*	*	*	*	*	*v	*v
=37	=37	=37	=37	=37	=37	=37	=37	=37
4r	4ryy	4r	4ryy	.	2.r	.	.	.
4r	4ryy	4r	4ryy	.	.	.	.	.
*	*	*	*8va	*	*	*	*	*
!	!	!LO:TX:b:i:t=sempre ritenuto	!	!LO:DY:rj	!	!	!	!
(24g/LL	(4g\	(4eee/	(24eee\LL	pp	.	.	.	.
24a/	.	.	24ccc#X\	.	.	.	.	.
24b-X/	.	.	24ddd\	.	.	.	.	.
24cc/	.	.	24aa\	.	.	.	.	.
24cc#X/	.	.	24bb-X\	.	.	.	.	.
24dd/JJ)	.	.	24ee\JJ)	.	.	.	.	.
=38	=38	=38	=38	=38	=38	=38	=38	=38
(24g-X/LL	4g-\	4fff/	(24fff\LL	.	2.r	.	.	.
24a/	.	.	24ccc#X\	.	.	.	.	.
24b-X/	.	.	24ddd\	.	.	.	.	.
24cc/	.	.	24aa\	.	.	.	.	.
24cc#X/	.	.	24bb-X\	.	.	.	.	.
24dd/JJ)	.	.	24ff\JJ)	.	.	.	.	.
(24f/LL	4f\	4fff#X/	(24fff#\LL	.	.	.	.	.
24a/	.	.	24ccc#\	.	.	.	.	.
24b-/	.	.	24ddd\	.	.	.	.	.
24ccn/	.	.	24aa\	.	.	.	.	.
24cc#X/	.	.	24bb-\	.	.	.	.	.
24dd/JJ)	.	.	24ff#X\JJ)	.	.	.	.	.
(24e/LL	4e\)	4ggg/)	(24ggg\LL	.	.	.	.	.
24a/	.	.	24ccc#\	.	.	.	.	.
24b-/	.	.	24ddd\	.	.	.	.	.
24ccn/	.	.	24aa\	.	.	.	.	.
24cc#X/	.	.	24bb-\	.	.	.	.	.
24dd/JJ)	.	.	24gg\JJ)	.	.	.	.	.
*v	*v	*	*	*	*	*	*	*
!!LO:LB:g=original
=39	=39	=39	=39	=39	=39	=39	=39
!	!	!	!LO:HP:t=e dim.	!	!	!	!
24r	[12ggg#X/L	24ggg#\LL	>	2.r	.	.	.
(>[12c/L	.	24bb#X\	.	.	.	.	.
.	[12ccc#X/ 12ggg#_	24ccc#\	.	.	.	.	.
12c/_) (>[12b-X	.	24ff##X\	.	.	.	.	.
.	12ccc#/J_ 12ggg#_	N[>24gg#X\JJ	.	.	.	.	.
24c/Jk_ 24b-_ [24ee)	.	24r	.	.	.	.	.
2c;/] 2b-] 2ee]	2cc#X;/ 2gg#N] 2ccc#] 2ggg#]	2ryy	.	.	.	.	.
*	*	*X8va	*	*	*	*	*
*clefF4	*	*	*	*	*	*	*
=40	=40	=40	=40	=40	=40	=40	=40
*^	*	*	*	*	*	*	*
!	!	!LO:TX:a:i:t=a tempo	!	!	!	!	!	!
(4c#X/	(4D\	(4ff/	(4aa\	p	4r	.	.	.
4d/	[2f\)	4b/	[2a\	.	8r	.	.	.
!	!	!	!	!	!	!	!	!LO:DY:a
.	.	.	.	.	8ff\	Du	Ła-	p
4d-X/	.	4cc/	.	.	8a/	stol-	-bę-	.
.	.	.	.	.	8a/	-zer	-dziu	.
=41	=41	=41	=41	=41	=41	=41	=41	=41
4cn/	(2f\]	4cc#X/	4a\]	.	4.a/	Schwan	mój	.
2Bn/)	.	2dd/)	4dd\	.	.	.	.	.
.	.	.	.	.	8a/	vom	z na-	.
.	4f-X\)	.	4ff#X\)	.	8a-X/	Hoff-	-dzie-	.
.	.	.	.	.	8a-/	-nungs-	-i	.
=42	=42	=42	=42	=42	=42	=42	=42	=42
(4Bn/	(4E-X\	(4ee-X/	(4gg\	.	4.g/	-land,	stron,	.
4c/	[2e-X\)	4a/	[2g\	.	.	.	.	.
.	.	.	.	.	8g/	zer-	Ty	.
4c-X/	.	4b-X/	.	.	[4gg\	-reisst	ży-	.
=43	=43	=43	=43	=43	=43	=43	=43	=43
4B-X/	(2e-\]	4bn/	4g\]	.	4.gg\]	.	.	.
2An/)	.	2cc/)	4cc\	.	.	.	.	.
.	.	.	.	.	8gg\	des	-cia	.
.	4e--\)	.	4een\)	.	8gg-X\	Le-	złu-	.
.	.	.	.	.	8gg-\	-bens	-dy	.
!!LO:LB:g=original
=44	=44	=44	=44	=44	=44	=44	=44	=44
!	!	!	!	!LO:HP:t=sempre dimin._:ext=s:ext=ud	!	!	!	!
(4An/	(4D-X\	(4dd/	(4ff\	>	4.ff\	eit-	wieś-	.
4B-X/)	4d-X\)	4g/)	4f\)	.	.	.	.	.
.	.	.	.	.	8g/	-les	-cisz	.
(4B#X/	(4Fn\	(4een/	(4gg#X\	.	[4g#X/	Band.	skon.	.
=45	=45	=45	=45	=45	=45	=45	=45	=45
4c#X/)	4en\)	4a#X/)	4g#X\)	.	4g#/]	.	.	.
(4d#X/	(4A-X\	(4ggn/	(4bb\	.	8r	.	.	.
.	.	.	.	.	8b\	Dein	I	.
4e/)	4g\)	4cc#X/)	4b\)	.	8b\	To-	przed-	.
.	.	.	.	.	8b\	-des-	-mo-	.
=46	=46	=46	=46	=46	=46	=46	=46	=46
(4f#X/	(4c-X\	(4bb-X/	(4ddd\	.	2dd\	-lied	-gil-	.
*clefG2	*	*	*	*	*	*	*	*
4g/)	4b-X\)	4ee/)	4dd\)	.	.	.	.	.
(4an/	(4e--\	(4ddd-X/	(4fff\	.	4dd\	es	-nej	.
=47	=47	=47	=47	=47	=47	=47	=47	=47
2.b-X/	2.dd-X\))	(2gg/)	(2ff\)	.	4r	.	.	.
.	.	.	.	.	4ff\	klingt	pieś-	.
.	.	4gg#X/)	4ee\)	.	4ff\	so	-ni	.
*clefF4	*	*	*	*	*	*	*	*
=48	=48	=48	=48	=48	=48	=48	=48	=48
!	!	!	!	!	!	!	!	!LO:HP:a
(4c#X/	4F\	(4ff/	(4aa\	] pp	[2.ff\	bang.	czar.	>
4d/	[2f\	4b/	[2a\	.	.	.	.	.
4d-X/	.	4cc/	.	.	.	.	.	.
=49	=49	=49	=49	=49	=49	=49	=49	=49
4cn/	(2f\]	4cc#X/	2a\]	.	2ff\]	.	.	]
4c-X/	.	4dd/ 4dd	.	.	.	.	.	.
([<4B-X/)	[>4e\)	[4dd-X/) [4gg#X	[4g#X\)	.	4r	.	.	.
!!LO:LB:g=original
=50	=50	=50	=50	=50	=50	=50	=50	=50
4B-X/]	4enX\])	4dd-X/] 4gg#X]	4g#X\]	.	2.ryy	.	.	.
(4c#X/	(4F\	(4ff/	4aa\	.	.	.	.	.
4d/	[4f\)	[4bn/	4a\	.	.	.	.	.
=51	=51	=51	=51	=51	=51	=51	=51	=51
(4d/)	2.f\_	4b/]	2.a\	.	2.ryy	.	.	.
4d-X/	.	4cc/	.	.	.	.	.	.
[4cn/	.	[4cc#X/	.	.	.	.	.	.
=52	=52	=52	=52	=52	=52	=52	=52	=52
!	!	!	!	!LO:HP:a:t=sempre dim._:ext=s:ext=ud	!	!	!	!
4c/]	(2f\]	4cc#/]	2a\	>	2.ryy	.	.	.
4c-X/	.	4dd/ 4dd	.	.	.	.	.	.
[<4B-X/	([>4en\)	[4dd-X/ [4gg#X	[4g#X\	.	.	.	.	.
=53	=53	=53	=53	=53	=53	=53	=53	=53
4B-/]	4e\]	4dd-/] 4gg#]	4g#\]	.	2.ryy	.	.	.
2c#X/)	2F\)	2ff/) 2aa	2a\	.	.	.	.	.
*v	*v	*	*	*	*	*	*	*
*	*v	*v	*	*	*	*	*
=54	=54	=54	=54	=54	=54	=54
4r	4r	]	2.ryy	.	.	.
!	!	!LO:DY:rj	!	!	!	!
[<2BB-X\ [<2E	[>2G#X</ [>2d-X [2g#X	ppp	.	.	.	.
=55	=55	=55	=55	=55	=55	=55
*^	*	*	*	*	*	*
2BB-\] 2E]	4r	2G#</] 2d-] 2g#]	.	2.ryy	.	.	.
.	N(>[2FFF\	.	.	.	.	.	.
4r	.	4r	.	.	.	.	.
*v	*v	*	*	*	*	*	*
=56	=56	=56	=56	=56	=56	=56
*	*^	*	*	*	*	*
2.FFF\_<	[2.aa/N) [2.ccc [2.fff [2.aaa	[2.c\ [2.f [2.a [2.cc	.	2.ryy	.	.	.
=57	=57	=57	=57	=57	=57	=57	=57
*^	*	*	*	*	*	*	*
!	!	!	!	!LO:DY:rj	!	!	!	!
2.D-X;/ 2.d-X	2.FFF;<\]	2.aa;/] 2.ccc] 2.fff] 2.aaa]	2.c\] 2.f] 2.a] 2.cc]	pppp	2.ryy	.	.	.
*v	*v	*	*	*	*	*	*	*
*	*v	*v	*	*	*	*	*
==	==	==	==	==	==	==
*-	*-	*-	*-	*-	*-	*-
!!!system-decoration: s1{(s2,s3)}
!!!RDF**kern: < = below
!!!RDF**kern: > = above
!!!RDF**kern: N = linked
!!!ENC: Andrzej Gręziak
!!!END: 2023-10-11
!!!EED: Marta Chmielewska
!!!EEV: 2023-11-14
